X:1
T:Isaac Watts, 1709 (Hymn 93, Book 2) 66. 86. (S. M.)
T:A minor Oliver Holden, 1796
T:Medina No copyright. Transcribed from The Union Harmony, 1796.
%%score [ 1 2 3 4 ]
L:1/8
M:4/4
K:C
V:1 treble nm="Treble" snm="Tr."
V:2 treble nm="Counter" snm="C."
V:3 treble-8 nm="Tenor" snm="T."
V:4 bass nm="Bass" snm="B."
V:1
 A4 | c2 c2 e2 e2 | A6 AB | c2 B2 c2 A2 | ^G6 G2 | A2 E2 c2 c2 | B2 ^G2 G2 G2 | A2 c2 G2 G2 | %8
 G6 c2 | e2 e2 c2 c2 | B2 B2 c2 c2 | c2 c2 A2 ^G2 | A8 |] %13
V:2
 E4 | E2 E2 E2 E2 | E6 E2 | E2 E2 E2 E2 | E6 E2 | E2 E2 E2 E2 | E2 E2 E2 E2 | E2 E2 G2 G2 | G6 E2 | %9
w: 1.~My|God, my life, my|love! To|Thee, to Thee I|call; I|can- not live if|Thou re- move, For|Thou art all in|all; I|
 G2 G2 G2 G2 | G2 G2 G2 G2 | G2 G2 E2 E2 | E8 |] %13
w: can- not live if|Thou re- move, for|Thou art all in|all.|
V:3
 E4 | A2 A2 B2 A^G | A6 cd | e2 E2 c>B A2 | B6 B2 | c2 c2 A2 A2 | B2 B2 B2 B2 | c2 e2 c2 d>c | %8
 c6 G2 | c2 c2 e2 e2 | dc BA e2 e2 | g2 e2 c2 B2 | A8 |] %13
V:4
 A,,4 | A,,2 A,,2 E,2 E,2 | A,6 A,2 | E,2 E,2 C,2 C,2 | E,6 E,2 | A,2 A,2 A,2 A,2 | %6
 E,2 E,2 E,2 E,2 | A,2 A,2 G,2 G,2 | C,6 C,2 | C,2 C,2 C,2 C,2 | G,2 G,2 E,2 E,2 | %11
 C,2 C,2 E,2 E,2 | A,,8 |] %13

